X: 127104
P: Same figure.
M: 6/8
L: 1/8
K: D
uA |\
ua |\
afa afa | bgb bgb | afa agf | efe efg |\
a3 f3 | ede fdB | ABA faf | ded d2 |]


